;START_OF_HEADER
;HEADER_VERSION:0.1
;FLAVOR:Griffin
;GENERATOR.NAME:Cura_SteamEngine
;GENERATOR.VERSION:3.6.0
;GENERATOR.BUILD_DATE:2018-11-12
;TARGET_MACHINE.NAME:Ultimaker 3 Extended
;EXTRUDER_TRAIN.0.INITIAL_TEMPERATURE:205
;EXTRUDER_TRAIN.0.MATERIAL.VOLUME_USED:2492
;EXTRUDER_TRAIN.0.MATERIAL.GUID:506c9f0d-e3aa-4bd4-b2d2-23e2425b1aa9
;EXTRUDER_TRAIN.0.NOZZLE.DIAMETER:0.4
;EXTRUDER_TRAIN.0.NOZZLE.NAME:AA 0.4
;BUILD_PLATE.TYPE:glass
;BUILD_PLATE.INITIAL_TEMPERATURE:60
;PRINT.TIME:4409
;PRINT.SIZE.MIN.X:9
;PRINT.SIZE.MIN.Y:6
;PRINT.SIZE.MIN.Z:0.27
;PRINT.SIZE.MAX.X:137.4
;PRINT.SIZE.MAX.Y:125.86
;PRINT.SIZE.MAX.Z:7.67
;END_OF_HEADER
;Generated with Cura_SteamEngine 3.6.0
T0
M82 ;absolute extrusion mode

G92 E0
M109 S205
G0 F15000 X9 Y6 Z2
G280
G1 F1500 E-6.5
;LAYER_COUNT:75
;LAYER:0
M107
M204 S625
M205 X6 Y6
G0 F4500 X97.47 Y91.335 Z0.27
M204 S500
M205 X5 Y5
;TYPE:SKIRT
G1 F1500 E0
G1 F720 X98.007 Y90.82 E0.01323
G1 X98.596 Y90.365 E0.02646
G1 X99.23 Y89.976 E0.03968
G1 X99.903 Y89.657 E0.05292
G1 X100.606 Y89.412 E0.06615
G1 X101.331 Y89.244 E0.07938
G1 X102.07 Y89.155 E0.09261
G1 X102.53 Y89.14 E0.10079
G1 X130.47 Y89.14 E0.59745
G1 X131.213 Y89.18 E0.61068
G1 X131.948 Y89.299 E0.62392
G1 X132.666 Y89.497 E0.63716
G1 X133.358 Y89.77 E0.65038
G1 X134.017 Y90.116 E0.66361
G1 X134.635 Y90.531 E0.67684
G1 X135.205 Y91.01 E0.69008
G1 X135.72 Y91.547 E0.7033
G1 X136.175 Y92.136 E0.71653
G1 X136.564 Y92.77 E0.72976
G1 X136.883 Y93.443 E0.743
G1 X137.128 Y94.146 E0.75623
G1 X137.296 Y94.871 E0.76946
G1 X137.385 Y95.61 E0.78269
G1 X137.4 Y96.07 E0.79087
G1 X137.4 Y118.93 E1.19723
G1 X137.36 Y119.673 E1.21046
G1 X137.241 Y120.408 E1.22369
G1 X137.043 Y121.126 E1.23693
G1 X136.77 Y121.818 E1.25015
G1 X136.424 Y122.477 E1.26339
G1 X136.009 Y123.095 E1.27662
G1 X135.53 Y123.665 E1.28985
G1 X134.993 Y124.18 E1.30308
G1 X134.404 Y124.635 E1.31631
G1 X133.77 Y125.024 E1.32953
G1 X133.097 Y125.343 E1.34277
G1 X132.394 Y125.588 E1.356
G1 X131.669 Y125.756 E1.36923
G1 X130.93 Y125.845 E1.38246
G1 X130.47 Y125.86 E1.39065
G1 X102.53 Y125.86 E1.88731
G1 X101.787 Y125.82 E1.90053
G1 X101.052 Y125.701 E1.91377
G1 X100.334 Y125.503 E1.92701
G1 X99.642 Y125.23 E1.94023
G1 X98.983 Y124.884 E1.95346
G1 X98.365 Y124.469 E1.9667
G1 X97.795 Y123.99 E1.97993
G1 X97.28 Y123.453 E1.99316
G1 X96.825 Y122.864 E2.00639
G1 X96.436 Y122.23 E2.01961
G1 X96.117 Y121.557 E2.03285
G1 X95.872 Y120.854 E2.04608
G1 X95.704 Y120.129 E2.05931
G1 X95.615 Y119.39 E2.07254
G1 X95.6 Y118.93 E2.08072
G1 X95.6 Y96.07 E2.48708
G1 X95.64 Y95.327 E2.50031
G1 X95.759 Y94.592 E2.51354
G1 X95.957 Y93.874 E2.52678
G1 X96.23 Y93.182 E2.54001
G1 X96.576 Y92.523 E2.55324
G1 X96.991 Y91.905 E2.56647
G1 X97.47 Y91.335 E2.57971
M204 S625
M205 X6 Y6
G0 F4500 X97.884 Y91.51
M204 S500
M205 X5 Y5
G1 F720 X98.417 Y91.024 E2.59253
G1 X99.001 Y90.6 E2.60536
G1 X99.628 Y90.243 E2.61818
G1 X100.29 Y89.957 E2.631
G1 X100.98 Y89.747 E2.64382
G1 X101.689 Y89.615 E2.65664
G1 X102.53 Y89.56 E2.67162
G1 X130.47 Y89.56 E3.16828
G1 X131.19 Y89.6 E3.1811
G1 X131.902 Y89.719 E3.19393
G1 X132.596 Y89.917 E3.20676
G1 X133.263 Y90.19 E3.21957
G1 X133.897 Y90.535 E3.23241
G1 X134.488 Y90.948 E3.24522
G1 X135.03 Y91.424 E3.25804
G1 X135.516 Y91.957 E3.27087
G1 X135.94 Y92.541 E3.2837
G1 X136.297 Y93.168 E3.29652
G1 X136.583 Y93.83 E3.30934
G1 X136.793 Y94.52 E3.32216
G1 X136.925 Y95.229 E3.33498
G1 X136.98 Y96.07 E3.34996
G1 X136.98 Y118.93 E3.75632
G1 X136.94 Y119.65 E3.76914
G1 X136.821 Y120.362 E3.78197
G1 X136.623 Y121.056 E3.7948
G1 X136.35 Y121.723 E3.80761
G1 X136.005 Y122.357 E3.82044
G1 X135.592 Y122.948 E3.83326
G1 X135.116 Y123.49 E3.84608
G1 X134.583 Y123.976 E3.8589
G1 X133.999 Y124.4 E3.87173
G1 X133.372 Y124.757 E3.88456
G1 X132.71 Y125.043 E3.89738
G1 X132.02 Y125.253 E3.9102
G1 X131.311 Y125.385 E3.92302
G1 X130.47 Y125.44 E3.938
G1 X102.53 Y125.44 E4.43466
G1 X101.81 Y125.4 E4.44748
G1 X101.098 Y125.281 E4.46031
G1 X100.404 Y125.083 E4.47314
G1 X99.737 Y124.81 E4.48595
G1 X99.103 Y124.465 E4.49878
G1 X98.512 Y124.052 E4.5116
G1 X97.97 Y123.576 E4.52442
G1 X97.484 Y123.043 E4.53724
G1 X97.06 Y122.459 E4.55007
G1 X96.703 Y121.832 E4.5629
G1 X96.417 Y121.17 E4.57571
G1 X96.207 Y120.48 E4.58854
G1 X96.075 Y119.771 E4.60135
G1 X96.02 Y118.93 E4.61634
G1 X96.02 Y96.07 E5.0227
G1 X96.06 Y95.35 E5.03551
G1 X96.179 Y94.638 E5.04835
G1 X96.377 Y93.944 E5.06117
G1 X96.65 Y93.277 E5.07399
G1 X96.995 Y92.643 E5.08682
G1 X97.408 Y92.052 E5.09963
G1 X97.884 Y91.51 E5.11246
M204 S625
M205 X6 Y6
G0 F4500 X98.298 Y91.691
M204 S500
M205 X5 Y5
G1 F720 X98.826 Y91.236 E5.12485
G1 X99.403 Y90.844 E5.13725
G1 X100.022 Y90.521 E5.14966
G1 X100.673 Y90.27 E5.16206
G1 X101.349 Y90.096 E5.17447
G1 X102.04 Y90 E5.18687
G1 X102.53 Y89.98 E5.19559
G1 X130.47 Y89.98 E5.69225
G1 X131.167 Y90.02 E5.70466
G1 X131.854 Y90.139 E5.71705
G1 X132.523 Y90.337 E5.72945
G1 X133.166 Y90.609 E5.74186
G1 X133.772 Y90.953 E5.75425
G1 X134.336 Y91.365 E5.76667
G1 X134.849 Y91.838 E5.77907
G1 X135.304 Y92.366 E5.79146
G1 X135.696 Y92.943 E5.80386
G1 X136.019 Y93.562 E5.81627
G1 X136.27 Y94.213 E5.82867
G1 X136.444 Y94.889 E5.84108
G1 X136.54 Y95.58 E5.85348
G1 X136.56 Y96.07 E5.8622
G1 X136.56 Y118.93 E6.26856
G1 X136.52 Y119.627 E6.28097
G1 X136.401 Y120.314 E6.29336
G1 X136.203 Y120.983 E6.30577
G1 X135.931 Y121.626 E6.31818
G1 X135.587 Y122.232 E6.33056
G1 X135.175 Y122.796 E6.34298
G1 X134.702 Y123.309 E6.35538
G1 X134.174 Y123.764 E6.36777
G1 X133.597 Y124.156 E6.38017
G1 X132.978 Y124.479 E6.39258
G1 X132.327 Y124.73 E6.40499
G1 X131.651 Y124.904 E6.41739
G1 X130.96 Y125 E6.42979
G1 X130.47 Y125.02 E6.43851
G1 X102.53 Y125.02 E6.93517
G1 X101.833 Y124.98 E6.94758
G1 X101.146 Y124.861 E6.95998
G1 X100.477 Y124.663 E6.97238
G1 X99.834 Y124.391 E6.98479
G1 X99.228 Y124.047 E6.99718
G1 X98.664 Y123.635 E7.00959
G1 X98.151 Y123.162 E7.022
G1 X97.696 Y122.634 E7.03439
G1 X97.304 Y122.057 E7.04679
G1 X96.981 Y121.438 E7.0592
G1 X96.73 Y120.787 E7.0716
G1 X96.556 Y120.111 E7.08401
G1 X96.46 Y119.42 E7.09641
G1 X96.44 Y118.93 E7.10513
G1 X96.44 Y96.07 E7.51149
G1 X96.48 Y95.373 E7.5239
G1 X96.599 Y94.686 E7.53629
G1 X96.797 Y94.017 E7.54869
G1 X97.069 Y93.374 E7.5611
G1 X97.413 Y92.768 E7.57349
G1 X97.825 Y92.204 E7.5859
G1 X98.298 Y91.691 E7.59831
M204 S625
M205 X6 Y6
G0 F4500 X98.24 Y92.362
M204 S500
M205 X5 Y5
G1 F720 X98.71 Y91.88 E7.61028
G1 X99.234 Y91.457 E7.62225
G1 X99.804 Y91.098 E7.63422
G1 X100.412 Y90.81 E7.64618
G1 X101.05 Y90.596 E7.65814
G1 X101.71 Y90.46 E7.67012
G1 X102.53 Y90.4 E7.68474
G1 X130.47 Y90.4 E8.1814
G1 X131.142 Y90.44 E8.19336
G1 X131.805 Y90.559 E8.20534
G1 X132.448 Y90.756 E8.21729
G1 X133.064 Y91.028 E8.22926
G1 X133.643 Y91.371 E8.24122
G1 X134.178 Y91.78 E8.25319
G1 X134.66 Y92.25 E8.26516
G1 X135.083 Y92.774 E8.27713
G1 X135.442 Y93.344 E8.28911
G1 X135.73 Y93.952 E8.30107
G1 X135.944 Y94.59 E8.31303
G1 X136.08 Y95.25 E8.32501
G1 X136.14 Y96.07 E8.33962
G1 X136.14 Y118.93 E8.74598
G1 X136.1 Y119.602 E8.75795
G1 X135.981 Y120.265 E8.76992
G1 X135.784 Y120.908 E8.78188
G1 X135.512 Y121.524 E8.79385
G1 X135.169 Y122.103 E8.80581
G1 X134.76 Y122.638 E8.81778
G1 X134.29 Y123.12 E8.82975
G1 X133.766 Y123.543 E8.84172
G1 X133.196 Y123.902 E8.85369
G1 X132.588 Y124.19 E8.86565
G1 X131.95 Y124.404 E8.87761
G1 X131.29 Y124.54 E8.88959
G1 X130.47 Y124.6 E8.90421
G1 X102.53 Y124.6 E9.40087
G1 X101.858 Y124.56 E9.41283
G1 X101.195 Y124.441 E9.42481
G1 X100.552 Y124.244 E9.43676
G1 X99.936 Y123.972 E9.44873
G1 X99.357 Y123.629 E9.4607
G1 X98.822 Y123.22 E9.47267
G1 X98.34 Y122.75 E9.48463
G1 X97.917 Y122.226 E9.4966
G1 X97.558 Y121.656 E9.50858
G1 X97.27 Y121.048 E9.52054
G1 X97.056 Y120.41 E9.5325
G1 X96.92 Y119.75 E9.54448
G1 X96.86 Y118.93 E9.55909
G1 X96.86 Y96.07 E9.96545
G1 X96.9 Y95.398 E9.97742
G1 X97.019 Y94.735 E9.98939
G1 X97.216 Y94.092 E10.00135
G1 X97.488 Y93.476 E10.01332
G1 X97.831 Y92.897 E10.02528
G1 X98.24 Y92.362 E10.03725
M204 S625
M205 X6 Y6
G0 F4500 X98.656 Y92.527
M204 S500
M205 X5 Y5
G1 F720 X99.122 Y92.077 E10.04877
G1 X99.639 Y91.688 E10.06027
G1 X100.201 Y91.365 E10.07179
G1 X100.798 Y91.114 E10.0833
G1 X101.422 Y90.938 E10.09483
G1 X102.062 Y90.841 E10.10633
G1 X102.53 Y90.82 E10.11466
G1 X130.47 Y90.82 E10.61132
G1 X131.117 Y90.86 E10.62284
G1 X131.753 Y90.979 E10.63435
G1 X132.37 Y91.176 E10.64586
G1 X132.959 Y91.447 E10.65738
G1 X133.509 Y91.789 E10.6689
G1 X134.013 Y92.196 E10.68041
G1 X134.463 Y92.662 E10.69193
G1 X134.852 Y93.179 E10.70343
G1 X135.175 Y93.741 E10.71495
G1 X135.426 Y94.338 E10.72646
G1 X135.602 Y94.962 E10.73799
G1 X135.699 Y95.602 E10.7495
G1 X135.72 Y96.07 E10.75782
G1 X135.72 Y118.93 E11.16418
G1 X135.68 Y119.577 E11.1757
G1 X135.561 Y120.213 E11.18721
G1 X135.364 Y120.83 E11.19872
G1 X135.093 Y121.419 E11.21024
G1 X134.751 Y121.969 E11.22176
G1 X134.344 Y122.473 E11.23327
G1 X133.878 Y122.923 E11.24479
G1 X133.361 Y123.312 E11.25629
G1 X132.799 Y123.635 E11.26781
G1 X132.202 Y123.886 E11.27932
G1 X131.578 Y124.062 E11.29085
G1 X130.938 Y124.159 E11.30236
G1 X130.47 Y124.18 E11.31068
G1 X102.53 Y124.18 E11.80734
G1 X101.883 Y124.14 E11.81887
G1 X101.247 Y124.021 E11.83037
G1 X100.63 Y123.824 E11.84188
G1 X100.041 Y123.553 E11.85341
G1 X99.491 Y123.211 E11.86492
G1 X98.987 Y122.804 E11.87644
G1 X98.537 Y122.338 E11.88795
G1 X98.148 Y121.821 E11.89945
G1 X97.825 Y121.259 E11.91097
G1 X97.574 Y120.662 E11.92249
G1 X97.398 Y120.038 E11.93401
G1 X97.301 Y119.398 E11.94552
G1 X97.28 Y118.93 E11.95385
G1 X97.28 Y96.07 E12.3602
G1 X97.32 Y95.423 E12.37173
G1 X97.439 Y94.787 E12.38323
G1 X97.636 Y94.17 E12.39474
G1 X97.907 Y93.581 E12.40627
G1 X98.249 Y93.031 E12.41778
G1 X98.656 Y92.527 E12.4293
M204 S625
M205 X6 Y6
G0 F4500 X99.07 Y92.7
M204 S500
M205 X5 Y5
G1 F720 X99.532 Y92.283 E12.44036
G1 X100.042 Y91.93 E12.45138
G1 X100.594 Y91.645 E12.46243
G1 X101.179 Y91.433 E12.47349
G1 X101.785 Y91.298 E12.48452
G1 X102.53 Y91.24 E12.49781
G1 X130.47 Y91.24 E12.99447
G1 X131.09 Y91.28 E13.00551
G1 X131.7 Y91.399 E13.01656
G1 X132.289 Y91.596 E13.0276
G1 X132.848 Y91.866 E13.03864
G1 X133.368 Y92.206 E13.04968
G1 X133.84 Y92.61 E13.06072
G1 X134.257 Y93.072 E13.07179
G1 X134.61 Y93.582 E13.08281
G1 X134.895 Y94.134 E13.09386
G1 X135.107 Y94.719 E13.10492
G1 X135.242 Y95.325 E13.11595
G1 X135.3 Y96.07 E13.12924
G1 X135.3 Y118.93 E13.53559
G1 X135.26 Y119.55 E13.54664
G1 X135.141 Y120.16 E13.55769
G1 X134.944 Y120.749 E13.56873
G1 X134.674 Y121.308 E13.57976
G1 X134.334 Y121.828 E13.59081
G1 X133.93 Y122.3 E13.60185
G1 X133.468 Y122.717 E13.61291
G1 X132.958 Y123.07 E13.62394
G1 X132.406 Y123.355 E13.63498
G1 X131.821 Y123.567 E13.64604
G1 X131.215 Y123.702 E13.65708
G1 X130.47 Y123.76 E13.67036
G1 X102.53 Y123.76 E14.16702
G1 X101.91 Y123.72 E14.17807
G1 X101.3 Y123.601 E14.18911
G1 X100.711 Y123.404 E14.20015
G1 X100.152 Y123.134 E14.21119
G1 X99.632 Y122.794 E14.22223
G1 X99.16 Y122.39 E14.23328
G1 X98.743 Y121.928 E14.24434
G1 X98.39 Y121.418 E14.25537
G1 X98.105 Y120.866 E14.26641
G1 X97.893 Y120.281 E14.27747
G1 X97.758 Y119.675 E14.28851
G1 X97.7 Y118.93 E14.30179
G1 X97.7 Y96.07 E14.70815
G1 X97.74 Y95.45 E14.71919
G1 X97.859 Y94.84 E14.73024
G1 X98.056 Y94.251 E14.74128
G1 X98.326 Y93.692 E14.75231
G1 X98.666 Y93.172 E14.76336
G1 X99.07 Y92.7 E14.7744
M204 S625
M205 X6 Y6
G0 F4500 X99.484 Y92.881
M204 S500
M205 X5 Y5
G1 F720 X99.94 Y92.501 E14.78495
G1 X100.443 Y92.185 E14.79551
G1 X100.983 Y91.94 E14.80605
G1 X101.552 Y91.77 E14.81661
G1 X102.138 Y91.677 E14.82716
G1 X102.53 Y91.66 E14.83413
G1 X130.47 Y91.66 E15.33079
G1 X131.062 Y91.7 E15.34134
G1 X131.644 Y91.819 E15.3519
G1 X132.204 Y92.015 E15.36245
G1 X132.733 Y92.285 E15.373
G1 X133.221 Y92.623 E15.38356
G1 X133.659 Y93.024 E15.39411
G1 X134.039 Y93.48 E15.40466
G1 X134.355 Y93.983 E15.41522
G1 X134.6 Y94.523 E15.42576
G1 X134.77 Y95.092 E15.43632
G1 X134.863 Y95.678 E15.44687
G1 X134.88 Y96.07 E15.45384
G1 X134.88 Y118.93 E15.8602
G1 X134.84 Y119.522 E15.87075
G1 X134.721 Y120.104 E15.88131
G1 X134.525 Y120.664 E15.89186
G1 X134.255 Y121.193 E15.90241
G1 X133.917 Y121.681 E15.91296
G1 X133.516 Y122.119 E15.92352
G1 X133.06 Y122.499 E15.93407
G1 X132.557 Y122.815 E15.94463
G1 X132.017 Y123.06 E15.95517
G1 X131.448 Y123.23 E15.96573
G1 X130.862 Y123.323 E15.97628
G1 X130.47 Y123.34 E15.98325
G1 X102.53 Y123.34 E16.47991
G1 X101.938 Y123.3 E16.49046
G1 X101.356 Y123.181 E16.50102
G1 X100.796 Y122.985 E16.51157
G1 X100.267 Y122.715 E16.52212
G1 X99.779 Y122.377 E16.53267
G1 X99.341 Y121.976 E16.54323
G1 X98.961 Y121.52 E16.55378
G1 X98.645 Y121.017 E16.56434
G1 X98.4 Y120.477 E16.57488
G1 X98.23 Y119.908 E16.58544
G1 X98.137 Y119.322 E16.59599
G1 X98.12 Y118.93 E16.60296
G1 X98.12 Y96.07 E17.00932
G1 X98.16 Y95.478 E17.01987
G1 X98.279 Y94.896 E17.03043
G1 X98.475 Y94.336 E17.04097
G1 X98.745 Y93.807 E17.05153
G1 X99.083 Y93.319 E17.06208
G1 X99.484 Y92.881 E17.07264
M204 S625
M205 X6 Y6
G0 F4500 X99.499 Y93.475
M204 S500
M205 X5 Y5
G1 F720 X99.896 Y93.073 E17.08268
G1 X100.345 Y92.731 E17.09272
G1 X100.839 Y92.456 E17.10277
G1 X101.366 Y92.254 E17.1128
G1 X101.916 Y92.128 E17.12283
G1 X102.53 Y92.08 E17.13378
G1 X130.47 Y92.08 E17.63044
G1 X131.033 Y92.12 E17.64047
G1 X131.585 Y92.239 E17.65051
G1 X132.115 Y92.435 E17.66055
G1 X132.611 Y92.703 E17.67057
G1 X133.065 Y93.039 E17.68061
G1 X133.467 Y93.436 E17.69066
G1 X133.809 Y93.885 E17.70069
G1 X134.084 Y94.379 E17.71074
G1 X134.286 Y94.906 E17.72077
G1 X134.412 Y95.456 E17.7308
G1 X134.46 Y96.07 E17.74175
G1 X134.46 Y118.93 E18.14811
G1 X134.42 Y119.493 E18.15814
G1 X134.301 Y120.045 E18.16818
G1 X134.105 Y120.575 E18.17823
G1 X133.837 Y121.071 E18.18825
G1 X133.501 Y121.525 E18.19829
G1 X133.104 Y121.927 E18.20833
G1 X132.655 Y122.269 E18.21836
G1 X132.161 Y122.544 E18.22841
G1 X131.634 Y122.746 E18.23845
G1 X131.084 Y122.872 E18.24848
G1 X130.47 Y122.92 E18.25942
G1 X102.53 Y122.92 E18.75608
G1 X101.967 Y122.88 E18.76612
G1 X101.415 Y122.761 E18.77616
G1 X100.885 Y122.565 E18.7862
G1 X100.389 Y122.297 E18.79622
G1 X99.935 Y121.961 E18.80626
G1 X99.533 Y121.564 E18.81631
G1 X99.191 Y121.115 E18.82634
G1 X98.916 Y120.621 E18.83639
G1 X98.714 Y120.094 E18.84642
G1 X98.588 Y119.544 E18.85645
G1 X98.54 Y118.93 E18.8674
G1 X98.54 Y96.07 E19.27376
G1 X98.58 Y95.507 E19.28379
G1 X98.699 Y94.955 E19.29383
G1 X98.895 Y94.425 E19.30387
G1 X99.163 Y93.929 E19.3139
G1 X99.499 Y93.475 E19.32394
M204 S625
M205 X6 Y6
G0 F4500 X99.915 Y93.64
M204 S500
M205 X5 Y5
G1 F720 X100.306 Y93.277 E19.33342
G1 X100.748 Y92.977 E19.34292
G1 X101.229 Y92.745 E19.35241
G1 X101.74 Y92.589 E19.36191
G1 X102.53 Y92.5 E19.37604
G1 X130.47 Y92.5 E19.8727
G1 X131.003 Y92.54 E19.8822
G1 X131.523 Y92.659 E19.89168
G1 X132.02 Y92.854 E19.90117
G1 X132.483 Y93.121 E19.91067
G1 X132.9 Y93.455 E19.92017
G1 X133.263 Y93.846 E19.92965
G1 X133.563 Y94.288 E19.93915
G1 X133.795 Y94.769 E19.94864
G1 X133.951 Y95.28 E19.95814
G1 X134.04 Y96.07 E19.97227
G1 X134.04 Y118.93 E20.37863
G1 X134 Y119.463 E20.38813
G1 X133.881 Y119.983 E20.39761
G1 X133.686 Y120.48 E20.4071
G1 X133.419 Y120.943 E20.41661
G1 X133.085 Y121.36 E20.4261
G1 X132.694 Y121.723 E20.43559
G1 X132.252 Y122.023 E20.44508
G1 X131.771 Y122.255 E20.45458
G1 X131.26 Y122.411 E20.46407
G1 X130.47 Y122.5 E20.4782
G1 X102.53 Y122.5 E20.97487
G1 X101.997 Y122.46 E20.98437
G1 X101.477 Y122.341 E20.99385
G1 X100.98 Y122.146 E21.00334
G1 X100.517 Y121.879 E21.01284
G1 X100.1 Y121.545 E21.02234
G1 X99.737 Y121.154 E21.03182
G1 X99.437 Y120.712 E21.04132
