;START_OF_HEADER
;HEADER_VERSION:0.1
;FLAVOR:Griffin
;GENERATOR.NAME:Cura_SteamEngine
;GENERATOR.VERSION:3.6.0
;GENERATOR.BUILD_DATE:2018-11-12
;TARGET_MACHINE.NAME:Ultimaker 3 Extended
;EXTRUDER_TRAIN.0.INITIAL_TEMPERATURE:205
;EXTRUDER_TRAIN.0.MATERIAL.VOLUME_USED:2721
;EXTRUDER_TRAIN.0.MATERIAL.GUID:506c9f0d-e3aa-4bd4-b2d2-23e2425b1aa9
;EXTRUDER_TRAIN.0.NOZZLE.DIAMETER:0.4
;EXTRUDER_TRAIN.0.NOZZLE.NAME:AA 0.4
;BUILD_PLATE.TYPE:glass
;BUILD_PLATE.INITIAL_TEMPERATURE:60
;PRINT.TIME:3233
;PRINT.SIZE.MIN.X:9
;PRINT.SIZE.MIN.Y:6
;PRINT.SIZE.MIN.Z:0.27
;PRINT.SIZE.MAX.X:137.391
;PRINT.SIZE.MAX.Y:123.356
;PRINT.SIZE.MAX.Z:8.37
;END_OF_HEADER
;Generated with Cura_SteamEngine 3.6.0
T0
M82 ;absolute extrusion mode

G92 E0
M109 S205
G0 F15000 X9 Y6 Z2
G280
G1 F1500 E-6.5
;LAYER_COUNT:83
;LAYER:0
M107
M204 S625
M205 X6 Y6
G0 F4285.7 X97.621 Y93.869 Z0.27
M204 S500
M205 X5 Y5
;TYPE:SKIRT
G1 F1500 E0
G1 F1200 X97.744 Y93.746 E0.00309
G1 X98.298 Y93.248 E0.01633
G1 X98.902 Y92.813 E0.02957
G1 X99.549 Y92.446 E0.04279
G1 X100.231 Y92.149 E0.05601
G1 X100.942 Y91.928 E0.06925
G1 X101.672 Y91.784 E0.08247
G1 X102.644 Y91.716 E0.09979
G1 X130.338 Y91.716 E0.59208
G1 X131.081 Y91.756 E0.60531
G1 X131.816 Y91.875 E0.61854
G1 X132.534 Y92.073 E0.63178
G1 X133.226 Y92.346 E0.64501
G1 X133.885 Y92.692 E0.65824
G1 X134.503 Y93.107 E0.67147
G1 X135.238 Y93.746 E0.68878
G1 X135.361 Y93.869 E0.69187
G1 X135.859 Y94.423 E0.70512
G1 X136.294 Y95.027 E0.71835
G1 X136.661 Y95.674 E0.73157
G1 X136.958 Y96.356 E0.74479
G1 X137.179 Y97.067 E0.75803
G1 X137.323 Y97.797 E0.77125
G1 X137.391 Y98.769 E0.78858
G1 X137.391 Y116.298 E1.10017
G1 X137.351 Y117.041 E1.1134
G1 X137.232 Y117.776 E1.12663
G1 X137.034 Y118.494 E1.13987
G1 X136.761 Y119.186 E1.1531
G1 X136.415 Y119.845 E1.16633
G1 X136 Y120.463 E1.17956
G1 X135.361 Y121.198 E1.19687
G1 X135.238 Y121.321 E1.19996
G1 X134.684 Y121.819 E1.21321
G1 X134.08 Y122.254 E1.22644
G1 X133.433 Y122.621 E1.23966
G1 X132.751 Y122.918 E1.25288
G1 X132.04 Y123.139 E1.26612
G1 X131.31 Y123.283 E1.27934
G1 X130.339 Y123.351 E1.29665
G1 X102.645 Y123.356 E1.78893
G1 X101.902 Y123.316 E1.80216
G1 X101.167 Y123.197 E1.8154
G1 X100.45 Y122.999 E1.82862
G1 X99.757 Y122.726 E1.84186
G1 X99.098 Y122.38 E1.85509
G1 X98.48 Y121.966 E1.86831
G1 X97.744 Y121.326 E1.88565
G1 X97.621 Y121.203 E1.88874
G1 X97.123 Y120.649 E1.90198
G1 X96.688 Y120.045 E1.91522
G1 X96.321 Y119.398 E1.92844
G1 X96.024 Y118.716 E1.94166
G1 X95.803 Y118.005 E1.9549
G1 X95.659 Y117.275 E1.96812
G1 X95.591 Y116.303 E1.98544
G1 X95.591 Y98.769 E2.29713
G1 X95.631 Y98.026 E2.31035
G1 X95.75 Y97.291 E2.32359
G1 X95.948 Y96.573 E2.33683
G1 X96.221 Y95.881 E2.35005
G1 X96.567 Y95.222 E2.36328
G1 X96.982 Y94.604 E2.37652
G1 X97.621 Y93.869 E2.39383
M204 S625
M205 X6 Y6
G0 F4285.7 X97.918 Y94.166
M204 S500
M205 X5 Y5
G1 F1200 X98.041 Y94.043 E2.39692
G1 X98.578 Y93.562 E2.40974
G1 X99.166 Y93.143 E2.42257
G1 X99.796 Y92.792 E2.43539
G1 X100.461 Y92.513 E2.44821
G1 X101.153 Y92.309 E2.46103
G1 X101.863 Y92.183 E2.47385
G1 X102.644 Y92.136 E2.48776
G1 X130.338 Y92.136 E2.98005
G1 X131.058 Y92.176 E2.99287
G1 X131.77 Y92.295 E3.0057
G1 X132.464 Y92.493 E3.01853
G1 X133.131 Y92.766 E3.03134
G1 X133.765 Y93.111 E3.04417
G1 X134.356 Y93.524 E3.05699
G1 X134.941 Y94.043 E3.07089
G1 X135.064 Y94.166 E3.07398
G1 X135.545 Y94.703 E3.08679
G1 X135.964 Y95.291 E3.09963
G1 X136.315 Y95.921 E3.11245
G1 X136.594 Y96.586 E3.12527
G1 X136.798 Y97.278 E3.13809
G1 X136.924 Y97.988 E3.15091
G1 X136.971 Y98.769 E3.16482
G1 X136.971 Y116.298 E3.47641
G1 X136.931 Y117.018 E3.48923
G1 X136.812 Y117.73 E3.50206
G1 X136.614 Y118.424 E3.51489
G1 X136.341 Y119.091 E3.5277
G1 X135.996 Y119.725 E3.54053
G1 X135.583 Y120.316 E3.55335
G1 X135.064 Y120.901 E3.56725
G1 X134.941 Y121.024 E3.57034
G1 X134.404 Y121.505 E3.58316
G1 X133.816 Y121.924 E3.59599
G1 X133.186 Y122.275 E3.60881
G1 X132.521 Y122.554 E3.62163
G1 X131.829 Y122.758 E3.63446
G1 X131.119 Y122.884 E3.64728
G1 X130.339 Y122.931 E3.66117
G1 X102.645 Y122.936 E4.15345
G1 X101.925 Y122.896 E4.16627
G1 X101.213 Y122.777 E4.1791
G1 X100.52 Y122.58 E4.19191
G1 X99.852 Y122.307 E4.20474
G1 X99.218 Y121.962 E4.21757
G1 X98.627 Y121.549 E4.23039
G1 X98.041 Y121.029 E4.24431
G1 X97.918 Y120.906 E4.24741
G1 X97.437 Y120.369 E4.26022
G1 X97.018 Y119.781 E4.27305
G1 X96.667 Y119.151 E4.28587
G1 X96.388 Y118.486 E4.29869
G1 X96.184 Y117.794 E4.31152
G1 X96.058 Y117.084 E4.32434
G1 X96.011 Y116.303 E4.33824
G1 X96.011 Y98.769 E4.64993
G1 X96.051 Y98.049 E4.66275
G1 X96.17 Y97.337 E4.67558
G1 X96.368 Y96.643 E4.68841
G1 X96.641 Y95.976 E4.70122
G1 X96.986 Y95.342 E4.71405
G1 X97.399 Y94.751 E4.72687
G1 X97.918 Y94.166 E4.74077
M204 S625
M205 X6 Y6
G0 F4285.7 X98.215 Y94.463
M204 S500
M205 X5 Y5
G1 F1200 X98.338 Y94.34 E4.74386
G1 X98.859 Y93.875 E4.75627
G1 X99.429 Y93.474 E4.76866
G1 X100.042 Y93.14 E4.78107
G1 X100.689 Y92.878 E4.79348
G1 X101.361 Y92.693 E4.80587
G1 X102.05 Y92.585 E4.81827
G1 X102.644 Y92.556 E4.82884
G1 X130.338 Y92.556 E5.32113
G1 X131.035 Y92.596 E5.33354
G1 X131.722 Y92.715 E5.34593
G1 X132.391 Y92.913 E5.35833
G1 X133.034 Y93.185 E5.37074
G1 X133.64 Y93.529 E5.38313
G1 X134.204 Y93.941 E5.39554
G1 X134.644 Y94.34 E5.4061
G1 X134.767 Y94.463 E5.4092
G1 X135.232 Y94.984 E5.42161
G1 X135.633 Y95.554 E5.434
G1 X135.967 Y96.167 E5.44641
G1 X136.229 Y96.814 E5.45881
G1 X136.414 Y97.486 E5.4712
G1 X136.522 Y98.175 E5.4836
G1 X136.551 Y98.769 E5.49417
G1 X136.551 Y116.298 E5.80577
G1 X136.511 Y116.995 E5.81818
G1 X136.392 Y117.682 E5.83057
G1 X136.194 Y118.351 E5.84297
G1 X135.922 Y118.994 E5.85539
G1 X135.578 Y119.6 E5.86777
G1 X135.166 Y120.164 E5.88019
G1 X134.767 Y120.604 E5.89075
G1 X134.644 Y120.727 E5.89384
G1 X134.123 Y121.192 E5.90625
G1 X133.553 Y121.593 E5.91864
G1 X132.94 Y121.927 E5.93105
G1 X132.293 Y122.189 E5.94346
G1 X131.621 Y122.374 E5.95585
G1 X130.932 Y122.482 E5.96824
G1 X130.339 Y122.511 E5.9788
G1 X102.645 Y122.516 E6.47109
G1 X101.949 Y122.476 E6.48348
G1 X101.261 Y122.357 E6.49589
G1 X100.592 Y122.16 E6.50829
G1 X99.949 Y121.887 E6.5207
G1 X99.342 Y121.543 E6.53311
G1 X98.779 Y121.132 E6.5455
G1 X98.338 Y120.732 E6.55608
G1 X98.215 Y120.609 E6.55917
G1 X97.75 Y120.088 E6.57159
G1 X97.349 Y119.518 E6.58398
G1 X97.015 Y118.905 E6.59638
G1 X96.753 Y118.258 E6.60879
G1 X96.568 Y117.586 E6.62118
G1 X96.46 Y116.897 E6.63358
G1 X96.431 Y116.303 E6.64415
G1 X96.431 Y98.769 E6.95584
G1 X96.471 Y98.072 E6.96825
G1 X96.59 Y97.385 E6.98064
G1 X96.788 Y96.716 E6.99304
G1 X97.06 Y96.073 E7.00545
G1 X97.404 Y95.467 E7.01784
G1 X97.816 Y94.903 E7.03025
G1 X98.215 Y94.463 E7.04081
M204 S625
M205 X6 Y6
G0 F4285.7 X98.512 Y94.76
M204 S500
M205 X5 Y5
G1 F1200 X98.635 Y94.637 E7.04391
G1 X99.138 Y94.19 E7.05587
G1 X99.691 Y93.806 E7.06783
G1 X100.286 Y93.49 E7.07981
G1 X100.913 Y93.247 E7.09176
G1 X101.565 Y93.08 E7.10373
G1 X102.233 Y92.991 E7.11571
G1 X102.644 Y92.976 E7.12302
G1 X130.338 Y92.976 E7.61531
G1 X131.01 Y93.016 E7.62727
G1 X131.673 Y93.135 E7.63925
G1 X132.316 Y93.332 E7.6512
G1 X132.932 Y93.604 E7.66317
G1 X133.511 Y93.947 E7.67513
G1 X134.046 Y94.356 E7.6871
G1 X134.347 Y94.637 E7.69442
G1 X134.47 Y94.76 E7.69752
G1 X134.917 Y95.263 E7.70948
G1 X135.301 Y95.816 E7.72145
G1 X135.617 Y96.411 E7.73342
G1 X135.86 Y97.038 E7.74537
G1 X136.027 Y97.69 E7.75734
G1 X136.116 Y98.358 E7.76932
G1 X136.131 Y98.769 E7.77663
G1 X136.131 Y116.298 E8.08822
G1 X136.091 Y116.97 E8.10019
G1 X135.972 Y117.633 E8.11216
G1 X135.775 Y118.276 E8.12412
G1 X135.503 Y118.892 E8.13609
G1 X135.16 Y119.471 E8.14805
G1 X134.751 Y120.006 E8.16002
G1 X134.47 Y120.307 E8.16734
G1 X134.347 Y120.43 E8.17043
G1 X133.844 Y120.877 E8.1824
G1 X133.291 Y121.261 E8.19436
G1 X132.696 Y121.577 E8.20634
G1 X132.069 Y121.82 E8.21829
G1 X131.417 Y121.987 E8.23026
G1 X130.749 Y122.076 E8.24224
G1 X130.339 Y122.091 E8.24953
G1 X102.645 Y122.096 E8.74182
G1 X101.973 Y122.056 E8.75378
G1 X101.31 Y121.937 E8.76576
G1 X100.667 Y121.74 E8.77771
G1 X100.051 Y121.468 E8.78968
G1 X99.471 Y121.125 E8.80166
G1 X98.937 Y120.716 E8.81362
G1 X98.635 Y120.435 E8.82095
G1 X98.512 Y120.312 E8.82404
G1 X98.065 Y119.809 E8.836
G1 X97.681 Y119.256 E8.84797
G1 X97.365 Y118.661 E8.85995
G1 X97.122 Y118.034 E8.8719
G1 X96.955 Y117.382 E8.88386
G1 X96.866 Y116.714 E8.89584
G1 X96.851 Y116.303 E8.90315
G1 X96.851 Y98.769 E9.21484
G1 X96.891 Y98.097 E9.2268
G1 X97.01 Y97.434 E9.23878
G1 X97.207 Y96.791 E9.25073
G1 X97.479 Y96.175 E9.2627
G1 X97.822 Y95.596 E9.27467
G1 X98.231 Y95.061 E9.28664
G1 X98.512 Y94.76 E9.29396
M204 S625
M205 X6 Y6
G0 F4285.7 X98.809 Y95.057
M204 S500
M205 X5 Y5
G1 F1200 X98.932 Y94.934 E9.29705
G1 X99.417 Y94.505 E9.30856
G1 X99.952 Y94.139 E9.32008
G1 X100.527 Y93.842 E9.33158
G1 X101.135 Y93.618 E9.3431
G1 X101.766 Y93.47 E9.35462
G1 X102.644 Y93.396 E9.37029
G1 X130.338 Y93.396 E9.86257
G1 X130.985 Y93.436 E9.8741
G1 X131.621 Y93.555 E9.8856
G1 X132.238 Y93.752 E9.89711
G1 X132.827 Y94.023 E9.90864
G1 X133.377 Y94.365 E9.92015
G1 X134.05 Y94.934 E9.93582
G1 X134.173 Y95.057 E9.93891
G1 X134.602 Y95.542 E9.95042
G1 X134.968 Y96.077 E9.96194
G1 X135.265 Y96.652 E9.97345
G1 X135.489 Y97.26 E9.98496
G1 X135.637 Y97.891 E9.99648
G1 X135.711 Y98.769 E10.01215
G1 X135.711 Y116.298 E10.32374
G1 X135.671 Y116.945 E10.33526
G1 X135.552 Y117.581 E10.34677
G1 X135.355 Y118.198 E10.35828
G1 X135.084 Y118.787 E10.36981
G1 X134.742 Y119.337 E10.38132
G1 X134.173 Y120.01 E10.39698
G1 X134.05 Y120.133 E10.40008
G1 X133.565 Y120.562 E10.41159
G1 X133.03 Y120.928 E10.42311
G1 X132.455 Y121.225 E10.43461
G1 X131.847 Y121.449 E10.44613
G1 X131.216 Y121.597 E10.45765
G1 X130.339 Y121.671 E10.4733
G1 X102.645 Y121.676 E10.96558
G1 X101.998 Y121.636 E10.97711
G1 X101.362 Y121.517 E10.98861
G1 X100.745 Y121.32 E11.00012
G1 X100.156 Y121.049 E11.01165
G1 X99.606 Y120.708 E11.02315
G1 X98.932 Y120.138 E11.03884
G1 X98.809 Y120.015 E11.04193
G1 X98.38 Y119.53 E11.05344
G1 X98.014 Y118.995 E11.06497
G1 X97.717 Y118.42 E11.07647
G1 X97.493 Y117.812 E11.08799
G1 X97.345 Y117.181 E11.09951
G1 X97.271 Y116.303 E11.11517
G1 X97.271 Y98.769 E11.42686
G1 X97.311 Y98.122 E11.43838
G1 X97.43 Y97.486 E11.44988
G1 X97.627 Y96.869 E11.46139
G1 X97.898 Y96.28 E11.47292
G1 X98.24 Y95.73 E11.48443
G1 X98.809 Y95.057 E11.5001
M204 S625
M205 X6 Y6
G0 F4285.7 X99.106 Y95.354
M204 S500
M205 X5 Y5
G1 F1200 X99.229 Y95.231 E11.50319
G1 X99.695 Y94.821 E11.51422
G1 X100.211 Y94.474 E11.52528
G1 X100.767 Y94.196 E11.53633
G1 X101.353 Y93.992 E11.54736
G1 X101.961 Y93.864 E11.5584
G1 X102.644 Y93.816 E11.57057
G1 X130.338 Y93.816 E12.06286
G1 X130.958 Y93.856 E12.0739
G1 X131.568 Y93.975 E12.08495
G1 X132.157 Y94.172 E12.09599
G1 X132.716 Y94.442 E12.10703
G1 X133.236 Y94.782 E12.11807
G1 X133.753 Y95.231 E12.13024
G1 X133.876 Y95.354 E12.13334
G1 X134.286 Y95.82 E12.14437
G1 X134.633 Y96.336 E12.15542
G1 X134.911 Y96.892 E12.16647
G1 X135.115 Y97.478 E12.1775
G1 X135.243 Y98.086 E12.18855
G1 X135.291 Y98.769 E12.20072
G1 X135.291 Y116.298 E12.51231
G1 X135.251 Y116.918 E12.52336
G1 X135.132 Y117.528 E12.53441
G1 X134.935 Y118.117 E12.54545
G1 X134.665 Y118.676 E12.55648
G1 X134.325 Y119.196 E12.56752
G1 X133.876 Y119.713 E12.5797
G1 X133.753 Y119.836 E12.58279
G1 X133.287 Y120.246 E12.59382
G1 X132.771 Y120.593 E12.60488
G1 X132.215 Y120.871 E12.61593
G1 X131.629 Y121.075 E12.62696
G1 X131.021 Y121.203 E12.638
G1 X130.339 Y121.251 E12.65015
G1 X102.645 Y121.256 E13.14244
G1 X102.025 Y121.216 E13.15349
G1 X101.415 Y121.097 E13.16453
G1 X100.826 Y120.901 E13.17557
G1 X100.266 Y120.63 E13.18663
G1 X99.746 Y120.29 E13.19767
G1 X99.229 Y119.841 E13.20984
G1 X99.106 Y119.718 E13.21294
G1 X98.696 Y119.252 E13.22397
G1 X98.349 Y118.736 E13.23502
G1 X98.071 Y118.18 E13.24607
G1 X97.867 Y117.594 E13.2571
G1 X97.739 Y116.986 E13.26815
G1 X97.691 Y116.303 E13.28032
G1 X97.691 Y98.769 E13.592
G1 X97.731 Y98.149 E13.60305
G1 X97.85 Y97.539 E13.61409
G1 X98.047 Y96.95 E13.62513
G1 X98.317 Y96.391 E13.63617
G1 X98.657 Y95.871 E13.64721
G1 X99.106 Y95.354 E13.65939
M204 S625
M205 X6 Y6
G0 F4285.7 X99.403 Y95.651
M204 S500
M205 X5 Y5
G1 F1200 X99.526 Y95.528 E13.66248
G1 X99.973 Y95.137 E13.67303
G1 X100.468 Y94.81 E13.68358
G1 X101.003 Y94.553 E13.69413
G1 X101.568 Y94.369 E13.70469
G1 X102.152 Y94.264 E13.71524
G1 X102.644 Y94.236 E13.724
G1 X130.338 Y94.236 E14.21629
G1 X130.93 Y94.276 E14.22684
G1 X131.512 Y94.395 E14.2374
G1 X132.072 Y94.591 E14.24794
G1 X132.601 Y94.861 E14.2585
G1 X133.089 Y95.199 E14.26905
G1 X133.456 Y95.528 E14.27781
G1 X133.579 Y95.651 E14.28091
G1 X133.97 Y96.098 E14.29146
G1 X134.297 Y96.593 E14.30201
G1 X134.554 Y97.128 E14.31256
G1 X134.738 Y97.693 E14.32312
G1 X134.843 Y98.277 E14.33367
G1 X134.871 Y98.769 E14.34243
G1 X134.871 Y116.298 E14.65402
G1 X134.831 Y116.89 E14.66457
G1 X134.712 Y117.472 E14.67513
G1 X134.516 Y118.032 E14.68568
G1 X134.246 Y118.561 E14.69623
G1 X133.908 Y119.049 E14.70679
G1 X133.579 Y119.416 E14.71555
G1 X133.456 Y119.539 E14.71864
G1 X133.009 Y119.93 E14.7292
G1 X132.514 Y120.257 E14.73974
G1 X131.979 Y120.514 E14.75029
G1 X131.414 Y120.698 E14.76086
G1 X130.83 Y120.803 E14.7714
G1 X130.339 Y120.831 E14.78015
G1 X102.645 Y120.836 E15.27243
G1 X102.053 Y120.796 E15.28298
G1 X101.471 Y120.677 E15.29354
G1 X100.911 Y120.481 E15.30409
G1 X100.382 Y120.212 E15.31464
G1 X99.894 Y119.873 E15.3252
G1 X99.526 Y119.544 E15.33397
G1 X99.403 Y119.421 E15.33707
G1 X99.012 Y118.974 E15.34762
G1 X98.685 Y118.479 E15.35817
G1 X98.428 Y117.944 E15.36872
G1 X98.244 Y117.379 E15.37928
G1 X98.139 Y116.795 E15.38983
G1 X98.111 Y116.303 E15.39859
G1 X98.111 Y98.769 E15.71027
G1 X98.151 Y98.177 E15.72082
G1 X98.27 Y97.595 E15.73138
G1 X98.466 Y97.035 E15.74193
G1 X98.736 Y96.506 E15.75248
G1 X99.074 Y96.018 E15.76304
G1 X99.403 Y95.651 E15.7718
M204 S625
M205 X6 Y6
G0 F4285.7 X99.7 Y95.948
M204 S500
M205 X5 Y5
G1 F1200 X99.823 Y95.825 E15.77489
G1 X100.249 Y95.455 E15.78492
G1 X100.724 Y95.149 E15.79496
G1 X101.237 Y94.912 E15.80501
G1 X101.778 Y94.751 E15.81504
G1 X102.336 Y94.668 E15.82507
G1 X102.644 Y94.656 E15.83055
G1 X130.338 Y94.656 E16.32284
G1 X130.901 Y94.696 E16.33287
G1 X131.453 Y94.815 E16.34291
G1 X131.983 Y95.011 E16.35295
G1 X132.479 Y95.279 E16.36298
G1 X132.933 Y95.615 E16.37302
G1 X133.159 Y95.825 E16.3785
G1 X133.282 Y95.948 E16.38159
G1 X133.652 Y96.374 E16.39162
G1 X133.958 Y96.849 E16.40167
G1 X134.195 Y97.362 E16.41171
G1 X134.356 Y97.903 E16.42174
G1 X134.439 Y98.461 E16.43177
G1 X134.451 Y98.769 E16.43725
G1 X134.451 Y116.298 E16.74885
G1 X134.411 Y116.861 E16.75888
G1 X134.292 Y117.413 E16.76892
G1 X134.096 Y117.943 E16.77896
G1 X133.828 Y118.439 E16.78898
G1 X133.492 Y118.893 E16.79902
G1 X133.282 Y119.119 E16.80451
G1 X133.159 Y119.242 E16.8076
G1 X132.733 Y119.612 E16.81763
G1 X132.258 Y119.918 E16.82767
G1 X131.745 Y120.155 E16.83772
G1 X131.204 Y120.316 E16.84775
G1 X130.646 Y120.399 E16.85778
G1 X130.339 Y120.411 E16.86324
G1 X102.645 Y120.416 E17.35553
G1 X102.082 Y120.376 E17.36556
G1 X101.53 Y120.257 E17.3756
G1 X101 Y120.062 E17.38564
G1 X100.503 Y119.793 E17.39569
G1 X100.049 Y119.457 E17.40573
G1 X99.823 Y119.247 E17.41121
G1 X99.7 Y119.124 E17.4143
G1 X99.33 Y118.698 E17.42433
G1 X99.024 Y118.223 E17.43438
G1 X98.787 Y117.71 E17.44442
G1 X98.626 Y117.169 E17.45445
G1 X98.543 Y116.611 E17.46448
G1 X98.531 Y116.303 E17.46996
G1 X98.531 Y98.769 E17.78165
G1 X98.571 Y98.206 E17.79168
G1 X98.69 Y97.654 E17.80172
G1 X98.886 Y97.124 E17.81176
G1 X99.154 Y96.628 E17.82178
